Favebrown.cube
#Generated by lutCreator.js
#Coded by SirSerch
#https://github.com/SirSerch/LutCreatorJs
TITLE lutCreatorJs_25
LUT_3D_SIZE 5
0.023529 0.023529 0.000000
0.098039 0.035294 0.003922
0.231373 0.047059 0.011765
0.482353 0.094118 0.039216
0.627451 0.317647 0.223529
0.196078 0.047059 0.000000
0.129412 0.109804 0.019608
0.266667 0.125490 0.035294
0.498039 0.172549 0.066667
0.650980 0.321569 0.180392
0.231373 0.231373 0.031373
0.207843 0.274510 0.070588
0.349020 0.305882 0.098039
0.541176 0.341176 0.137255
0.623529 0.478431 0.258824
0.486275 0.486275 0.247059
0.415686 0.533333 0.294118
0.529412 0.541176 0.305882
0.709804 0.580392 0.345098
0.803922 0.674510 0.435294
0.737255 0.776471 0.592157
0.682353 0.784314 0.600000
0.772549 0.776471 0.592157
0.898039 0.760784 0.576471
1.000000 0.764706 0.576471
0.031373 0.070588 0.003922
0.090196 0.082353 0.019608
0.231373 0.101961 0.035294
0.490196 0.196078 0.117647
0.627451 0.392157 0.286275
0.227451 0.094118 0.007843
0.164706 0.152941 0.086275
0.305882 0.180392 0.113725
0.533333 0.243137 0.164706
0.698039 0.403922 0.290196
0.282353 0.309804 0.137255
0.254902 0.345098 0.172549
0.380392 0.364706 0.192157
0.572549 0.415686 0.243137
0.658824 0.549020 0.364706
0.549020 0.564706 0.360784
0.490196 0.623529 0.411765
0.592157 0.619608 0.411765
0.749020 0.647059 0.439216
0.831373 0.721569 0.513725
0.490196 0.529412 0.360784
0.466667 0.568627 0.400000
0.576471 0.568627 0.403922
0.745098 0.596078 0.423529
0.913725 0.650980 0.474510
0.078431 0.121569 0.137255
0.129412 0.125490 0.145098
0.266667 0.152941 0.192157
0.505882 0.219608 0.258824
0.650980 0.431373 0.431373
0.266667 0.160784 0.160784
0.203922 0.219608 0.235294
0.345098 0.250980 0.278431
0.576471 0.313725 0.337255
0.737255 0.494118 0.478431
0.341176 0.400000 0.317647
0.313725 0.439216 0.352941
0.439216 0.462745 0.384314
0.623529 0.505882 0.431373
0.705882 0.643137 0.556863
0.619608 0.650980 0.560784
0.560784 0.705882 0.611765
0.650980 0.705882 0.611765
0.796078 0.709804 0.619608
0.854902 0.768627 0.674510
0.337255 0.341176 0.313725
0.309804 0.388235 0.360784
0.431373 0.411765 0.392157
0.635294 0.458824 0.439216
0.835294 0.564706 0.513725
0.125490 0.203922 0.341176
0.176471 0.223529 0.384314
0.298039 0.243137 0.415686
0.529412 0.305882 0.505882
0.662745 0.490196 0.643137
0.313725 0.254902 0.380392
0.254902 0.321569 0.458824
0.376471 0.352941 0.494118
0.596078 0.407843 0.576471
0.745098 0.549020 0.686275
0.384314 0.482353 0.521569
0.372549 0.525490 0.560784
0.478431 0.552941 0.588235
0.662745 0.615686 0.662745
0.745098 0.729412 0.756863
0.674510 0.737255 0.768627
0.607843 0.776471 0.807843
0.682353 0.764706 0.803922
0.823529 0.788235 0.831373
0.878431 0.827451 0.858824
0.258824 0.274510 0.392157
0.239216 0.325490 0.454902
0.360784 0.360784 0.509804
0.564706 0.423529 0.580392
0.776471 0.525490 0.662745
0.164706 0.329412 0.596078
0.274510 0.407843 0.694118
0.388235 0.415686 0.690196
0.607843 0.494118 0.752941
0.717647 0.658824 0.886275
0.352941 0.392157 0.603922
0.313725 0.458824 0.701961
0.454902 0.505882 0.745098
0.639216 0.564706 0.784314
0.764706 0.686275 0.878431
0.454902 0.592157 0.709804
0.431373 0.627451 0.752941
0.513725 0.639216 0.760784
0.690196 0.705882 0.815686
0.768627 0.807843 0.901961
0.686275 0.823529 0.874510
0.639216 0.854902 0.913725
0.670588 0.835294 0.886275
0.784314 0.854902 0.898039
0.874510 0.917647 0.960784
0.000000 0.000000 0.000000
0.000000 0.000000 0.000000
0.000000 0.000000 0.000000
0.000000 0.000000 0.000000
0.000000 0.000000 0.000000
