Favebrown.cube
#Generated by lutCreator.js
#Coded by SirSerch
#https://github.com/SirSerch/LutCreatorJs
TITLE lutCreatorJs_25
LUT_3D_SIZE 25
0.023529 0.023529 0.000000
0.031373 0.023529 0.000000
0.043137 0.027451 0.000000
0.050980 0.027451 0.000000
0.062745 0.027451 0.000000
0.082353 0.031373 0.000000
0.098039 0.035294 0.003922
0.105882 0.031373 0.000000
0.129412 0.035294 0.003922
0.156863 0.043137 0.015686
0.180392 0.047059 0.015686
0.207843 0.050980 0.019608
0.231373 0.047059 0.011765
0.270588 0.054902 0.019608
0.313725 0.062745 0.027451
0.345098 0.058824 0.023529
0.388235 0.070588 0.027451
0.435294 0.078431 0.031373
0.482353 0.094118 0.039216
0.537255 0.117647 0.050980
0.592157 0.141176 0.062745
0.639216 0.168627 0.074510
0.690196 0.200000 0.090196
0.682353 0.247059 0.137255
0.627451 0.317647 0.223529
0.168627 0.000000 0.000000
0.086275 0.015686 0.000000
0.043137 0.027451 0.000000
0.058824 0.035294 0.000000
0.074510 0.043137 0.000000
0.086275 0.043137 0.000000
0.101961 0.047059 0.000000
0.113725 0.047059 0.000000
0.133333 0.050980 0.003922
0.156863 0.050980 0.003922
0.184314 0.050980 0.007843
0.207843 0.054902 0.007843
0.239216 0.054902 0.011765
0.274510 0.062745 0.019608
0.309804 0.066667 0.023529
0.349020 0.070588 0.023529
0.380392 0.074510 0.023529
0.431373 0.090196 0.031373
0.478431 0.101961 0.039216
0.537255 0.125490 0.047059
0.584314 0.145098 0.054902
0.627451 0.164706 0.062745
0.678431 0.192157 0.082353
0.721569 0.223529 0.101961
0.670588 0.290196 0.180392
0.129412 0.000000 0.000000
0.047059 0.043137 0.000000
0.054902 0.047059 0.000000
0.062745 0.050980 0.000000
0.074510 0.050980 0.000000
0.090196 0.054902 0.000000
0.101961 0.054902 0.000000
0.121569 0.058824 0.000000
0.133333 0.058824 0.000000
0.156863 0.058824 0.003922
0.184314 0.062745 0.007843
0.211765 0.062745 0.007843
0.243137 0.066667 0.011765
0.274510 0.070588 0.015686
0.305882 0.074510 0.023529
0.345098 0.082353 0.027451
0.384314 0.086275 0.023529
0.431373 0.098039 0.027451
0.474510 0.113725 0.031373
0.529412 0.137255 0.047059
0.572549 0.152941 0.058824
0.619608 0.176471 0.074510
0.662745 0.200000 0.082353
0.658824 0.243137 0.125490
0.607843 0.305882 0.203922
0.180392 0.000000 0.000000
0.098039 0.039216 0.000000
0.054902 0.054902 0.000000
0.070588 0.058824 0.000000
0.078431 0.062745 0.000000
0.090196 0.066667 0.000000
0.105882 0.066667 0.000000
0.125490 0.070588 0.000000
0.141176 0.066667 0.000000
0.160784 0.070588 0.000000
0.184314 0.074510 0.000000
0.215686 0.078431 0.000000
0.247059 0.082353 0.007843
0.274510 0.086275 0.011765
0.305882 0.090196 0.015686
0.341176 0.094118 0.019608
0.380392 0.101961 0.023529
0.427451 0.117647 0.027451
0.478431 0.129412 0.035294
0.525490 0.145098 0.047059
0.572549 0.164706 0.058824
0.611765 0.184314 0.062745
0.654902 0.211765 0.082353
0.701961 0.231373 0.098039
0.647059 0.290196 0.168627
0.137255 0.035294 0.000000
0.054902 0.074510 0.000000
0.062745 0.070588 0.000000
0.070588 0.074510 0.000000
0.086275 0.078431 0.000000
0.098039 0.078431 0.000000
0.117647 0.082353 0.000000
0.129412 0.082353 0.000000
0.145098 0.086275 0.000000
0.160784 0.086275 0.000000
0.188235 0.090196 0.000000
0.215686 0.090196 0.000000
0.243137 0.098039 0.003922
0.274510 0.098039 0.003922
0.313725 0.101961 0.015686
0.352941 0.109804 0.019608
0.388235 0.117647 0.027451
0.427451 0.129412 0.035294
0.474510 0.145098 0.043137
0.517647 0.160784 0.050980
0.560784 0.176471 0.058824
0.600000 0.192157 0.058824
0.650980 0.219608 0.078431
0.682353 0.243137 0.090196
0.721569 0.270588 0.113725
0.058824 0.082353 0.007843
0.058824 0.082353 0.003922
0.070588 0.082353 0.007843
0.078431 0.086275 0.007843
0.094118 0.090196 0.011765
0.105882 0.090196 0.011765
0.121569 0.094118 0.015686
0.137255 0.094118 0.015686
0.160784 0.098039 0.023529
0.180392 0.098039 0.023529
0.200000 0.098039 0.023529
0.227451 0.101961 0.023529
0.254902 0.105882 0.027451
0.290196 0.113725 0.035294
0.329412 0.117647 0.039216
0.364706 0.121569 0.039216
0.411765 0.133333 0.050980
0.454902 0.145098 0.058824
0.494118 0.152941 0.058824
0.541176 0.168627 0.066667
0.584314 0.184314 0.070588
0.623529 0.200000 0.078431
0.662745 0.219608 0.086275
0.658824 0.270588 0.137255
0.596078 0.325490 0.200000
0.196078 0.047059 0.000000
0.117647 0.082353 0.000000
0.078431 0.098039 0.015686
0.090196 0.101961 0.019608
0.098039 0.101961 0.015686
0.117647 0.109804 0.019608
0.129412 0.109804 0.019608
0.141176 0.109804 0.019608
0.164706 0.117647 0.027451
0.188235 0.117647 0.027451
0.211765 0.121569 0.027451
0.231373 0.113725 0.019608
0.266667 0.125490 0.035294
0.305882 0.129412 0.043137
0.337255 0.133333 0.043137
0.364706 0.133333 0.039216
0.415686 0.152941 0.054902
0.462745 0.164706 0.066667
0.498039 0.172549 0.066667
0.541176 0.184314 0.070588
0.580392 0.196078 0.074510
0.627451 0.219608 0.086275
0.666667 0.235294 0.098039
0.698039 0.258824 0.109804
0.650980 0.321569 0.180392
0.164706 0.082353 0.000000
0.082353 0.117647 0.011765
0.086275 0.117647 0.015686
0.098039 0.121569 0.019608
0.109804 0.121569 0.019608
0.125490 0.125490 0.023529
0.137255 0.125490 0.019608
0.152941 0.129412 0.023529
0.172549 0.133333 0.027451
0.196078 0.137255 0.027451
0.215686 0.137255 0.027451
0.239216 0.137255 0.031373
0.274510 0.145098 0.039216
0.309804 0.152941 0.050980
0.341176 0.156863 0.054902
0.376471 0.160784 0.058824
0.419608 0.168627 0.062745
0.462745 0.184314 0.070588
0.501961 0.192157 0.070588
0.541176 0.203922 0.078431
0.584314 0.219608 0.090196
0.623529 0.239216 0.098039
0.670588 0.262745 0.117647
0.650980 0.290196 0.141176
0.600000 0.349020 0.207843
0.219608 0.086275 0.000000
0.137255 0.121569 0.000000
0.098039 0.137255 0.023529
0.109804 0.141176 0.023529
0.117647 0.141176 0.023529
0.129412 0.149020 0.027451
0.145098 0.149020 0.023529
0.164706 0.149020 0.031373
0.184314 0.152941 0.031373
0.203922 0.156863 0.035294
0.227451 0.156863 0.035294
0.258824 0.164706 0.043137
0.286275 0.164706 0.047059
0.313725 0.172549 0.050980
0.345098 0.176471 0.054902
0.388235 0.188235 0.066667
0.423529 0.192157 0.066667
0.462745 0.203922 0.070588
0.509804 0.219608 0.082353
0.552941 0.227451 0.090196
0.592157 0.247059 0.101961
0.627451 0.262745 0.105882
0.662745 0.278431 0.117647
0.701961 0.298039 0.133333
0.647059 0.352941 0.196078
0.188235 0.133333 0.000000
0.105882 0.168627 0.031373
0.109804 0.164706 0.031373
0.121569 0.164706 0.031373
0.129412 0.168627 0.031373
0.145098 0.172549 0.035294
0.160784 0.172549 0.039216
0.176471 0.176471 0.043137
0.192157 0.180392 0.039216
0.219608 0.188235 0.047059
0.243137 0.188235 0.050980
0.266667 0.192157 0.054902
0.301961 0.203922 0.062745
0.333333 0.207843 0.066667
0.364706 0.207843 0.070588
0.396078 0.211765 0.074510
0.431373 0.219608 0.078431
0.470588 0.231373 0.090196
0.517647 0.250980 0.105882
0.556863 0.262745 0.113725
0.584314 0.262745 0.105882
0.631373 0.290196 0.125490
0.670588 0.305882 0.137255
0.701961 0.321569 0.145098
0.729412 0.345098 0.164706
0.113725 0.196078 0.031373
0.117647 0.196078 0.031373
0.125490 0.196078 0.035294
0.133333 0.196078 0.035294
0.145098 0.200000 0.035294
0.156863 0.200000 0.035294
0.168627 0.200000 0.031373
0.192157 0.207843 0.039216
0.211765 0.211765 0.043137
0.231373 0.215686 0.047059
0.254902 0.219608 0.050980
0.282353 0.223529 0.058824
0.317647 0.235294 0.066667
0.345098 0.239216 0.074510
0.376471 0.243137 0.078431
0.407843 0.243137 0.082353
0.439216 0.247059 0.082353
0.478431 0.258824 0.094118
0.529412 0.278431 0.109804
0.556863 0.282353 0.109804
0.596078 0.301961 0.121569
0.631373 0.317647 0.133333
0.670588 0.333333 0.141176
0.662745 0.364706 0.172549
0.607843 0.419608 0.227451
0.250980 0.176471 0.000000
0.176471 0.211765 0.031373
0.141176 0.227451 0.050980
0.149020 0.227451 0.050980
0.156863 0.231373 0.050980
0.168627 0.231373 0.050980
0.180392 0.231373 0.050980
0.196078 0.235294 0.054902
0.223529 0.243137 0.062745
0.247059 0.243137 0.062745
0.270588 0.250980 0.066667
0.294118 0.254902 0.070588
0.333333 0.266667 0.082353
0.368627 0.270588 0.090196
0.396078 0.274510 0.094118
0.423529 0.278431 0.094118
0.454902 0.282353 0.098039
0.498039 0.298039 0.113725
0.529412 0.301961 0.117647
0.564706 0.313725 0.125490
0.600000 0.325490 0.133333
0.647059 0.349020 0.152941
0.674510 0.360784 0.160784
0.705882 0.376471 0.168627
0.654902 0.431373 0.227451
0.231373 0.231373 0.031373
0.156863 0.266667 0.066667
0.160784 0.266667 0.066667
0.172549 0.270588 0.070588
0.180392 0.266667 0.070588
0.196078 0.270588 0.074510
0.207843 0.274510 0.070588
0.223529 0.274510 0.070588
0.247059 0.282353 0.074510
0.262745 0.286275 0.074510
0.282353 0.290196 0.078431
0.309804 0.294118 0.082353
0.349020 0.305882 0.098039
0.376471 0.309804 0.105882
0.411765 0.317647 0.117647
0.435294 0.313725 0.117647
0.474510 0.325490 0.129412
0.505882 0.333333 0.129412
0.541176 0.341176 0.137255
0.572549 0.349020 0.145098
0.615686 0.364706 0.156863
0.643137 0.376471 0.164706
0.678431 0.392157 0.180392
0.670588 0.427451 0.207843
0.623529 0.478431 0.258824
0.290196 0.250980 0.035294
0.215686 0.286275 0.066667
0.180392 0.305882 0.090196
0.192157 0.305882 0.090196
0.200000 0.305882 0.094118
0.215686 0.313725 0.098039
0.227451 0.313725 0.098039
0.247059 0.317647 0.101961
0.266667 0.317647 0.101961
0.278431 0.317647 0.098039
0.305882 0.325490 0.105882
0.333333 0.329412 0.113725
0.360784 0.333333 0.117647
0.392157 0.345098 0.129412
0.423529 0.352941 0.137255
0.458824 0.356863 0.145098
0.494118 0.364706 0.152941
0.521569 0.372549 0.152941
0.552941 0.376471 0.156863
0.588235 0.384314 0.168627
0.627451 0.400000 0.184314
0.650980 0.407843 0.184314
0.686275 0.427451 0.203922
0.725490 0.447059 0.223529
0.678431 0.501961 0.274510
0.278431 0.321569 0.090196
0.203922 0.352941 0.117647
0.203922 0.349020 0.113725
0.211765 0.349020 0.117647
0.223529 0.352941 0.113725
0.235294 0.356863 0.117647
0.250980 0.356863 0.121569
0.266667 0.360784 0.125490
0.282353 0.360784 0.125490
0.301961 0.360784 0.129412
0.325490 0.364706 0.133333
0.352941 0.372549 0.141176
0.380392 0.380392 0.141176
0.411765 0.388235 0.152941
0.443137 0.392157 0.156863
0.478431 0.403922 0.172549
0.513725 0.411765 0.180392
0.541176 0.415686 0.188235
0.576471 0.423529 0.200000
0.607843 0.431373 0.207843
0.639216 0.447059 0.219608
0.674510 0.458824 0.231373
0.698039 0.466667 0.239216
0.729412 0.482353 0.250980
0.749020 0.494118 0.262745
0.262745 0.376471 0.180392
0.266667 0.376471 0.180392
0.270588 0.376471 0.176471
0.282353 0.376471 0.180392
0.282353 0.372549 0.172549
0.298039 0.376471 0.172549
0.313725 0.380392 0.176471
0.329412 0.380392 0.176471
0.352941 0.388235 0.184314
0.372549 0.388235 0.188235
0.388235 0.388235 0.184314
0.419608 0.396078 0.196078
0.439216 0.392157 0.196078
0.474510 0.403922 0.207843
0.501961 0.403922 0.211765
0.545098 0.419608 0.227451
0.572549 0.423529 0.231373
0.607843 0.427451 0.231373
0.650980 0.443137 0.247059
0.678431 0.447059 0.250980
0.713725 0.466667 0.262745
0.729412 0.466667 0.258824
0.764706 0.474510 0.262745
0.760784 0.509804 0.298039
0.705882 0.556863 0.341176
0.419608 0.376471 0.164706
0.341176 0.407843 0.200000
0.305882 0.423529 0.215686
0.313725 0.427451 0.215686
0.317647 0.423529 0.211765
0.333333 0.431373 0.215686
0.341176 0.427451 0.211765
0.352941 0.427451 0.211765
0.376471 0.427451 0.215686
0.396078 0.431373 0.215686
0.423529 0.435294 0.223529
0.447059 0.443137 0.227451
0.466667 0.439216 0.223529
0.494118 0.439216 0.227451
0.533333 0.450980 0.239216
0.560784 0.454902 0.243137
0.600000 0.474510 0.258824
0.639216 0.482353 0.270588
0.662745 0.482353 0.270588
0.698039 0.498039 0.282353
0.729412 0.505882 0.290196
0.768627 0.517647 0.305882
0.792157 0.525490 0.309804
0.819608 0.537255 0.317647
0.760784 0.580392 0.356863
0.411765 0.447059 0.219608
0.337255 0.482353 0.250980
0.345098 0.482353 0.250980
0.349020 0.482353 0.250980
0.356863 0.478431 0.250980
0.372549 0.478431 0.254902
0.380392 0.478431 0.250980
0.396078 0.478431 0.247059
0.415686 0.486275 0.250980
0.435294 0.490196 0.254902
0.447059 0.490196 0.250980
0.474510 0.498039 0.258824
0.501961 0.498039 0.262745
0.529412 0.498039 0.270588
0.556863 0.498039 0.274510
0.588235 0.505882 0.282353
0.623529 0.517647 0.294118
0.654902 0.529412 0.301961
0.690196 0.537255 0.309804
0.717647 0.541176 0.317647
0.752941 0.552941 0.329412
0.788235 0.568627 0.341176
0.811765 0.576471 0.345098
0.800000 0.603922 0.368627
0.749020 0.647059 0.411765
0.486275 0.486275 0.247059
0.407843 0.513725 0.270588
0.384314 0.537255 0.294118
0.388235 0.533333 0.294118
0.388235 0.525490 0.290196
0.400000 0.529412 0.290196
0.415686 0.533333 0.294118
0.431373 0.533333 0.294118
0.447059 0.529412 0.294118
0.470588 0.541176 0.301961
0.482353 0.537255 0.298039
0.509804 0.545098 0.305882
0.529412 0.541176 0.305882
0.560784 0.549020 0.313725
0.584314 0.549020 0.313725
0.619608 0.556863 0.325490
0.639216 0.552941 0.321569
0.674510 0.568627 0.333333
0.709804 0.580392 0.345098
0.741176 0.588235 0.356863
0.768627 0.592157 0.360784
0.803922 0.607843 0.372549
0.831373 0.619608 0.384314
0.854902 0.631373 0.396078
0.803922 0.674510 0.435294
0.494118 0.568627 0.321569
0.423529 0.600000 0.345098
0.423529 0.592157 0.341176
0.423529 0.588235 0.333333
0.431373 0.588235 0.333333
0.443137 0.592157 0.333333
0.450980 0.588235 0.333333
0.458824 0.584314 0.329412
0.482353 0.592157 0.337255
0.501961 0.592157 0.341176
0.521569 0.596078 0.345098
0.545098 0.596078 0.349020
0.564706 0.600000 0.349020
0.596078 0.607843 0.356863
0.615686 0.600000 0.352941
0.643137 0.603922 0.360784
0.674510 0.615686 0.368627
0.705882 0.623529 0.376471
0.733333 0.627451 0.388235
0.760784 0.631373 0.396078
0.796078 0.650980 0.411765
0.819608 0.654902 0.415686
0.850980 0.666667 0.431373
0.870588 0.674510 0.443137
0.882353 0.678431 0.447059
0.470588 0.588235 0.411765
0.470588 0.584314 0.407843
0.470588 0.576471 0.400000
0.478431 0.580392 0.400000
0.482353 0.580392 0.392157
0.490196 0.576471 0.388235
0.505882 0.572549 0.392157
0.525490 0.576471 0.396078
0.533333 0.572549 0.392157
0.552941 0.576471 0.396078
0.572549 0.576471 0.392157
0.600000 0.580392 0.400000
0.623529 0.580392 0.403922
0.647059 0.580392 0.407843
0.678431 0.584314 0.411765
0.709804 0.588235 0.415686
0.745098 0.596078 0.419608
0.776471 0.596078 0.423529
0.815686 0.603922 0.427451
0.847059 0.607843 0.431373
0.874510 0.619608 0.435294
0.905882 0.631373 0.443137
0.933333 0.639216 0.447059
0.909804 0.654902 0.462745
0.850980 0.701961 0.509804
0.635294 0.592157 0.403922
0.560784 0.623529 0.443137
0.517647 0.635294 0.454902
0.517647 0.631373 0.447059
0.533333 0.635294 0.450980
0.537255 0.631373 0.447059
0.545098 0.627451 0.439216
0.560784 0.631373 0.443137
0.580392 0.631373 0.443137
0.596078 0.627451 0.439216
0.615686 0.627451 0.443137
0.635294 0.631373 0.443137
0.658824 0.631373 0.447059
0.678431 0.623529 0.439216
0.713725 0.631373 0.450980
0.737255 0.631373 0.450980
0.764706 0.635294 0.454902
0.811765 0.650980 0.470588
0.835294 0.647059 0.462745
0.866667 0.650980 0.466667
0.898039 0.658824 0.474510
0.921569 0.662745 0.474510
0.941176 0.662745 0.474510
0.956863 0.670588 0.474510
0.901961 0.713725 0.517647
0.639216 0.666667 0.470588
0.564706 0.698039 0.501961
0.568627 0.698039 0.501961
0.568627 0.690196 0.498039
0.580392 0.690196 0.505882
0.584314 0.682353 0.501961
0.592157 0.678431 0.498039
0.603922 0.674510 0.490196
0.623529 0.682353 0.494118
0.631373 0.678431 0.490196
0.650980 0.682353 0.490196
0.670588 0.678431 0.490196
0.694118 0.678431 0.494118
0.717647 0.678431 0.494118
0.745098 0.678431 0.498039
0.772549 0.678431 0.498039
0.803922 0.682353 0.501961
0.827451 0.682353 0.501961
0.854902 0.690196 0.505882
0.878431 0.690196 0.501961
0.913725 0.698039 0.509804
0.933333 0.690196 0.501961
0.960784 0.701961 0.505882
0.937255 0.717647 0.521569
0.878431 0.752941 0.560784
0.737255 0.713725 0.521569
0.666667 0.749020 0.552941
0.623529 0.752941 0.560784
0.627451 0.749020 0.564706
0.627451 0.741176 0.556863
0.635294 0.737255 0.552941
0.643137 0.733333 0.549020
0.658824 0.733333 0.549020
0.666667 0.729412 0.545098
0.678431 0.729412 0.545098
0.694118 0.729412 0.545098
0.713725 0.725490 0.545098
0.737255 0.729412 0.545098
0.752941 0.725490 0.545098
0.776471 0.729412 0.545098
0.803922 0.729412 0.549020
0.827451 0.729412 0.549020
0.854902 0.729412 0.545098
0.878431 0.729412 0.541176
0.901961 0.725490 0.541176
0.925490 0.725490 0.541176
0.945098 0.725490 0.533333
0.968627 0.733333 0.537255
0.980392 0.733333 0.537255
0.925490 0.764706 0.572549
0.737255 0.776471 0.592157
0.670588 0.807843 0.623529
0.674510 0.800000 0.615686
0.674510 0.796078 0.607843
0.678431 0.796078 0.607843
0.682353 0.792157 0.603922
0.682353 0.784314 0.600000
0.698039 0.788235 0.603922
0.705882 0.780392 0.592157
0.717647 0.780392 0.592157
0.729412 0.772549 0.584314
0.749020 0.772549 0.588235
0.772549 0.776471 0.592157
0.792157 0.772549 0.592157
0.811765 0.768627 0.592157
0.831373 0.764706 0.588235
0.850980 0.760784 0.580392
0.882353 0.768627 0.584314
0.898039 0.760784 0.576471
0.913725 0.756863 0.572549
0.933333 0.756863 0.568627
0.960784 0.764706 0.576471
0.976471 0.756863 0.568627
0.992157 0.756863 0.572549
1.000000 0.764706 0.576471
0.000000 0.070588 0.000000
0.000000 0.070588 0.000000
0.000000 0.074510 0.000000
0.000000 0.078431 0.000000
0.003922 0.078431 0.000000
0.019608 0.086275 0.000000
0.035294 0.082353 0.000000
0.054902 0.086275 0.000000
0.074510 0.094118 0.000000
0.094118 0.098039 0.000000
0.117647 0.098039 0.000000
0.141176 0.098039 0.000000
0.168627 0.105882 0.000000
0.200000 0.113725 0.000000
0.231373 0.113725 0.000000
0.266667 0.121569 0.000000
0.301961 0.129412 0.000000
0.352941 0.149020 0.000000
0.400000 0.160784 0.007843
0.450980 0.184314 0.027451
0.490196 0.203922 0.043137
0.533333 0.231373 0.062745
0.588235 0.262745 0.090196
0.588235 0.309804 0.133333
0.541176 0.368627 0.196078
0.094118 0.031373 0.000000
0.019608 0.066667 0.000000
0.000000 0.082353 0.000000
0.000000 0.086275 0.000000
0.011765 0.094118 0.000000
0.023529 0.094118 0.000000
0.039216 0.098039 0.000000
0.050980 0.098039 0.000000
0.070588 0.101961 0.000000
0.094118 0.101961 0.000000
0.117647 0.109804 0.000000
0.137255 0.113725 0.000000
0.164706 0.117647 0.000000
0.196078 0.117647 0.000000
0.227451 0.125490 0.000000
0.262745 0.137255 0.000000
0.298039 0.145098 0.000000
0.345098 0.156863 0.000000
0.388235 0.172549 0.011765
0.439216 0.196078 0.035294
0.486275 0.215686 0.050980
0.533333 0.243137 0.074510
0.576471 0.266667 0.098039
0.619608 0.298039 0.117647
0.584314 0.368627 0.188235
0.054902 0.058824 0.000000
0.000000 0.094118 0.000000
0.000000 0.098039 0.000000
0.000000 0.098039 0.000000
0.011765 0.098039 0.000000
0.023529 0.098039 0.000000
0.039216 0.101961 0.000000
0.058824 0.105882 0.000000
0.070588 0.105882 0.000000
0.090196 0.109804 0.000000
0.113725 0.117647 0.000000
0.137255 0.117647 0.000000
0.164706 0.125490 0.000000
0.192157 0.129412 0.000000
0.227451 0.137255 0.000000
0.262745 0.145098 0.000000
0.301961 0.152941 0.000000
0.345098 0.168627 0.011765
0.384314 0.188235 0.027451
0.431373 0.207843 0.047059
0.470588 0.223529 0.058824
0.525490 0.250980 0.082353
0.568627 0.270588 0.098039
0.572549 0.317647 0.141176
0.525490 0.372549 0.203922
0.101961 0.050980 0.000000
0.031373 0.086275 0.000000
0.000000 0.101961 0.000000
0.007843 0.105882 0.000000
0.015686 0.101961 0.000000
0.031373 0.109804 0.000000
0.047059 0.113725 0.000000
0.066667 0.117647 0.000000
0.082353 0.117647 0.000000
0.098039 0.121569 0.000000
0.117647 0.125490 0.000000
0.145098 0.133333 0.000000
0.172549 0.137255 0.000000
0.196078 0.141176 0.000000
0.227451 0.152941 0.000000
0.258824 0.156863 0.000000
0.294118 0.164706 0.007843
0.337255 0.184314 0.023529
0.376471 0.196078 0.031373
0.423529 0.215686 0.050980
0.470588 0.235294 0.070588
0.505882 0.254902 0.082353
0.549020 0.278431 0.105882
0.588235 0.301961 0.125490
0.552941 0.364706 0.188235
0.074510 0.086275 0.000000
0.003922 0.113725 0.000000
0.007843 0.109804 0.000000
0.019608 0.117647 0.000000
0.027451 0.121569 0.000000
0.039216 0.121569 0.000000
0.050980 0.121569 0.000000
0.062745 0.129412 0.000000
0.082353 0.133333 0.000000
0.098039 0.137255 0.000000
0.121569 0.137255 0.000000
0.145098 0.137255 0.000000
0.168627 0.145098 0.000000
0.200000 0.152941 0.000000
0.235294 0.160784 0.003922
0.266667 0.168627 0.015686
0.301961 0.180392 0.023529
0.341176 0.196078 0.035294
0.376471 0.207843 0.043137
0.419608 0.227451 0.062745
0.454902 0.247059 0.074510
0.498039 0.266667 0.094118
0.545098 0.290196 0.117647
0.576471 0.309804 0.137255
0.611765 0.337255 0.160784
0.047059 0.101961 0.000000
0.050980 0.101961 0.000000
0.062745 0.105882 0.000000
0.070588 0.105882 0.000000
0.078431 0.109804 0.000000
0.094118 0.109804 0.000000
0.113725 0.109804 0.000000
0.125490 0.109804 0.000000
0.145098 0.113725 0.000000
0.160784 0.113725 0.000000
0.184314 0.121569 0.000000
0.211765 0.125490 0.003922
0.239216 0.129412 0.007843
0.266667 0.137255 0.011765
0.305882 0.149020 0.023529
0.341176 0.149020 0.023529
0.380392 0.160784 0.031373
0.427451 0.172549 0.047059
0.462745 0.180392 0.050980
0.505882 0.196078 0.062745
0.552941 0.219608 0.078431
0.592157 0.235294 0.090196
0.635294 0.258824 0.105882
0.627451 0.294118 0.141176
0.580392 0.356863 0.207843
0.184314 0.074510 0.000000
0.101961 0.105882 0.000000
0.062745 0.121569 0.000000
0.074510 0.125490 0.000000
0.086275 0.125490 0.000000
0.098039 0.129412 0.000000
0.117647 0.133333 0.000000
0.129412 0.137255 0.000000
0.149020 0.137255 0.000000
0.168627 0.141176 0.003922
0.188235 0.137255 0.003922
0.215686 0.141176 0.007843
0.239216 0.141176 0.007843
0.282353 0.152941 0.019608
0.317647 0.160784 0.027451
0.345098 0.164706 0.027451
0.388235 0.180392 0.043137
0.427451 0.192157 0.050980
0.466667 0.200000 0.054902
0.509804 0.215686 0.070588
0.549020 0.231373 0.082353
0.588235 0.250980 0.098039
0.631373 0.270588 0.113725
0.662745 0.294118 0.125490
0.611765 0.349020 0.180392
0.141176 0.105882 0.000000
0.062745 0.137255 0.000000
0.070588 0.141176 0.000000
0.078431 0.137255 0.000000
0.090196 0.141176 0.000000
0.105882 0.145098 0.003922
0.117647 0.145098 0.000000
0.133333 0.149020 0.003922
0.152941 0.152941 0.011765
0.176471 0.160784 0.015686
0.200000 0.164706 0.007843
0.223529 0.168627 0.011765
0.247059 0.168627 0.019608
0.282353 0.176471 0.027451
0.317647 0.184314 0.035294
0.349020 0.188235 0.039216
0.388235 0.200000 0.047059
0.427451 0.211765 0.058824
0.466667 0.219608 0.074510
0.505882 0.235294 0.086275
0.552941 0.254902 0.098039
0.588235 0.266667 0.105882
0.631373 0.290196 0.121569
0.623529 0.325490 0.152941
0.580392 0.384314 0.211765
0.196078 0.113725 0.000000
0.117647 0.145098 0.000000
0.078431 0.160784 0.000000
0.094118 0.164706 0.003922
0.098039 0.160784 0.003922
0.109804 0.164706 0.003922
0.129412 0.168627 0.007843
0.145098 0.168627 0.011765
0.164706 0.172549 0.015686
0.188235 0.180392 0.019608
0.211765 0.188235 0.027451
0.235294 0.188235 0.027451
0.262745 0.192157 0.031373
0.294118 0.203922 0.043137
0.325490 0.207843 0.047059
0.356863 0.207843 0.047059
0.396078 0.219608 0.058824
0.435294 0.239216 0.070588
0.470588 0.247059 0.078431
0.509804 0.258824 0.090196
0.549020 0.274510 0.105882
0.588235 0.290196 0.117647
0.631373 0.313725 0.137255
0.658824 0.329412 0.145098
0.611765 0.384314 0.200000
0.164706 0.160784 0.000000
0.090196 0.192157 0.015686
0.098039 0.188235 0.011765
0.109804 0.196078 0.015686
0.113725 0.192157 0.011765
0.125490 0.192157 0.015686
0.141176 0.196078 0.019608
0.160784 0.200000 0.023529
0.180392 0.211765 0.031373
0.200000 0.211765 0.035294
0.223529 0.211765 0.035294
0.250980 0.219608 0.043137
0.278431 0.227451 0.050980
0.309804 0.239216 0.058824
0.341176 0.243137 0.062745
0.372549 0.247059 0.066667
0.403922 0.254902 0.074510
0.443137 0.266667 0.086275
0.478431 0.274510 0.094118
0.517647 0.290196 0.105882
0.552941 0.305882 0.117647
0.588235 0.321569 0.133333
0.627451 0.337255 0.149020
0.662745 0.356863 0.164706
0.690196 0.376471 0.176471
0.125490 0.200000 0.047059
0.137255 0.207843 0.054902
0.137255 0.200000 0.050980
0.141176 0.200000 0.050980
0.152941 0.203922 0.054902
0.164706 0.203922 0.054902
0.180392 0.203922 0.054902
0.203922 0.211765 0.062745
0.219608 0.211765 0.058824
