Favebrown.cube
#Generated by lutCreator.js
#Coded by SirSerch
#https://github.com/SirSerch/LutCreatorJs
TITLE lutCreatorJs_25
LUT_3D_SIZE 9
0.023529 0.023529 0.000000
0.050980 0.027451 0.000000
0.098039 0.035294 0.003922
0.156863 0.043137 0.015686
0.231373 0.047059 0.011765
0.345098 0.058824 0.023529
0.482353 0.094118 0.039216
0.639216 0.168627 0.074510
0.627451 0.317647 0.223529
0.180392 0.000000 0.000000
0.070588 0.058824 0.000000
0.105882 0.066667 0.000000
0.160784 0.070588 0.000000
0.247059 0.082353 0.007843
0.341176 0.094118 0.019608
0.478431 0.129412 0.035294
0.611765 0.184314 0.062745
0.647059 0.290196 0.168627
0.196078 0.047059 0.000000
0.090196 0.101961 0.019608
0.129412 0.109804 0.019608
0.188235 0.117647 0.027451
0.266667 0.125490 0.035294
0.364706 0.133333 0.039216
0.498039 0.172549 0.066667
0.627451 0.219608 0.086275
0.650980 0.321569 0.180392
0.188235 0.133333 0.000000
0.121569 0.164706 0.031373
0.160784 0.172549 0.039216
0.219608 0.188235 0.047059
0.301961 0.203922 0.062745
0.396078 0.211765 0.074510
0.517647 0.250980 0.105882
0.631373 0.290196 0.125490
0.729412 0.345098 0.164706
0.231373 0.231373 0.031373
0.172549 0.270588 0.070588
0.207843 0.274510 0.070588
0.262745 0.286275 0.074510
0.349020 0.305882 0.098039
0.435294 0.313725 0.117647
0.541176 0.341176 0.137255
0.643137 0.376471 0.164706
0.623529 0.478431 0.258824
0.262745 0.376471 0.180392
0.282353 0.376471 0.180392
0.313725 0.380392 0.176471
0.372549 0.388235 0.188235
0.439216 0.392157 0.196078
0.545098 0.419608 0.227451
0.650980 0.443137 0.247059
0.729412 0.466667 0.258824
0.705882 0.556863 0.341176
0.486275 0.486275 0.247059
0.388235 0.533333 0.294118
0.415686 0.533333 0.294118
0.470588 0.541176 0.301961
0.529412 0.541176 0.305882
0.619608 0.556863 0.325490
0.709804 0.580392 0.345098
0.803922 0.607843 0.372549
0.803922 0.674510 0.435294
0.635294 0.592157 0.403922
0.517647 0.631373 0.447059
0.545098 0.627451 0.439216
0.596078 0.627451 0.439216
0.658824 0.631373 0.447059
0.737255 0.631373 0.450980
0.835294 0.647059 0.462745
0.921569 0.662745 0.474510
0.901961 0.713725 0.517647
0.737255 0.776471 0.592157
0.674510 0.796078 0.607843
0.682353 0.784314 0.600000
0.717647 0.780392 0.592157
0.772549 0.776471 0.592157
0.831373 0.764706 0.588235
0.898039 0.760784 0.576471
0.960784 0.764706 0.576471
1.000000 0.764706 0.576471
0.000000 0.078431 0.000000
0.011765 0.078431 0.000000
0.050980 0.090196 0.000000
0.109804 0.098039 0.000000
0.184314 0.109804 0.000000
0.294118 0.137255 0.000000
0.423529 0.180392 0.035294
0.560784 0.239216 0.082353
0.568627 0.384314 0.215686
0.113725 0.062745 0.000000
0.019608 0.117647 0.000000
0.054902 0.125490 0.000000
0.109804 0.137255 0.000000
0.188235 0.152941 0.000000
0.278431 0.180392 0.011765
0.407843 0.223529 0.050980
0.537255 0.282353 0.101961
0.588235 0.392157 0.215686
0.192157 0.086275 0.000000
0.086275 0.133333 0.007843
0.121569 0.141176 0.015686
0.184314 0.149020 0.023529
0.258824 0.160784 0.035294
0.360784 0.184314 0.054902
0.486275 0.219608 0.082353
0.607843 0.270588 0.121569
0.639216 0.376471 0.215686
0.180392 0.180392 0.003922
0.113725 0.207843 0.035294
0.152941 0.219608 0.047059
0.211765 0.231373 0.054902
0.290196 0.247059 0.070588
0.376471 0.266667 0.086275
0.490196 0.294118 0.117647
0.603922 0.337255 0.152941
0.709804 0.400000 0.203922
0.266667 0.262745 0.086275
0.203922 0.294118 0.121569
0.235294 0.298039 0.117647
0.294118 0.305882 0.129412
0.372549 0.321569 0.145098
0.462745 0.341176 0.160784
0.564706 0.364706 0.180392
0.670588 0.400000 0.215686
0.647059 0.498039 0.305882
0.270588 0.423529 0.200000
0.286275 0.423529 0.200000
0.325490 0.427451 0.211765
0.376471 0.435294 0.207843
0.447059 0.443137 0.223529
0.533333 0.462745 0.239216
0.635294 0.494118 0.266667
0.737255 0.521569 0.294118
0.694118 0.603922 0.372549
0.494118 0.549020 0.290196
0.403922 0.600000 0.329412
0.435294 0.603922 0.329412
0.466667 0.596078 0.325490
0.533333 0.600000 0.337255
0.607843 0.611765 0.349020
0.690196 0.631373 0.372549
0.788235 0.662745 0.411765
0.784314 0.713725 0.466667
0.486275 0.482353 0.258824
0.388235 0.537255 0.313725
0.411765 0.533333 0.305882
0.462745 0.533333 0.309804
0.529412 0.537255 0.313725
0.615686 0.552941 0.329412
0.713725 0.576471 0.352941
0.811765 0.607843 0.384314
0.803922 0.666667 0.439216
0.576471 0.678431 0.435294
0.521569 0.713725 0.458824
0.541176 0.705882 0.450980
0.576471 0.701961 0.450980
0.627451 0.701961 0.454902
0.701961 0.705882 0.470588
0.776471 0.713725 0.478431
0.847059 0.721569 0.501961
0.898039 0.737255 0.517647
0.031373 0.070588 0.003922
0.050980 0.078431 0.011765
0.090196 0.082353 0.019608
0.152941 0.090196 0.027451
0.231373 0.101961 0.035294
0.345098 0.137255 0.066667
0.490196 0.196078 0.117647
0.627451 0.258824 0.152941
0.627451 0.392157 0.286275
0.156863 0.062745 0.000000
0.058824 0.121569 0.011765
0.098039 0.125490 0.019608
0.156863 0.141176 0.027451
0.243137 0.160784 0.050980
0.349020 0.188235 0.082353
0.478431 0.235294 0.117647
0.607843 0.294118 0.164706
0.647059 0.400000 0.266667
0.227451 0.094118 0.007843
0.125490 0.149020 0.078431
0.164706 0.152941 0.086275
0.219608 0.164706 0.098039
0.305882 0.180392 0.113725
0.407843 0.207843 0.137255
0.533333 0.243137 0.164706
0.670588 0.301961 0.203922
0.698039 0.403922 0.290196
0.227451 0.188235 0.074510
0.168627 0.231373 0.121569
0.200000 0.227451 0.121569
0.254902 0.239216 0.125490
0.341176 0.258824 0.149020
0.427451 0.270588 0.160784
0.549020 0.305882 0.188235
0.666667 0.352941 0.219608
0.768627 0.415686 0.270588
0.282353 0.309804 0.137255
0.223529 0.345098 0.176471
0.254902 0.345098 0.172549
0.309804 0.352941 0.184314
0.380392 0.364706 0.192157
0.474510 0.392157 0.215686
0.572549 0.415686 0.243137
0.674510 0.447059 0.266667
0.658824 0.549020 0.364706
0.333333 0.454902 0.294118
0.349020 0.458824 0.301961
0.384314 0.458824 0.305882
0.431373 0.462745 0.301961
0.501961 0.466667 0.309804
0.596078 0.482353 0.325490
0.694118 0.505882 0.349020
0.796078 0.537255 0.372549
0.752941 0.619608 0.443137
0.549020 0.564706 0.360784
0.462745 0.619608 0.411765
0.490196 0.623529 0.411765
0.525490 0.615686 0.407843
0.592157 0.619608 0.411765
0.666667 0.627451 0.423529
0.749020 0.647059 0.439216
0.839216 0.666667 0.462745
0.831373 0.721569 0.513725
0.423529 0.349020 0.215686
0.325490 0.407843 0.278431
0.352941 0.407843 0.278431
0.407843 0.411765 0.282353
0.478431 0.419608 0.294118
0.572549 0.443137 0.309804
0.678431 0.466667 0.329412
0.772549 0.486275 0.349020
0.788235 0.564706 0.415686
0.490196 0.529412 0.360784
0.435294 0.564706 0.396078
0.466667 0.568627 0.400000
0.509804 0.564706 0.400000
0.576471 0.568627 0.403922
0.650980 0.576471 0.407843
0.745098 0.596078 0.423529
0.839216 0.619608 0.450980
0.913725 0.650980 0.474510
0.050980 0.101961 0.054902
0.066667 0.101961 0.058824
0.098039 0.105882 0.062745
0.164706 0.113725 0.078431
0.239216 0.125490 0.090196
0.352941 0.152941 0.113725
0.482353 0.203922 0.160784
0.635294 0.282353 0.219608
0.639216 0.427451 0.349020
0.168627 0.094118 0.003922
0.074510 0.152941 0.062745
0.109804 0.156863 0.070588
0.164706 0.168627 0.078431
0.247059 0.188235 0.101961
0.349020 0.207843 0.121569
0.486275 0.266667 0.176471
0.627451 0.341176 0.239216
0.662745 0.447059 0.329412
0.227451 0.125490 0.054902
0.133333 0.184314 0.121569
0.180392 0.192157 0.133333
0.231373 0.203922 0.145098
0.317647 0.227451 0.168627
0.423529 0.258824 0.196078
0.549020 0.298039 0.227451
0.674510 0.356863 0.274510
0.694118 0.450980 0.356863
0.231373 0.243137 0.125490
0.176471 0.278431 0.168627
0.203922 0.286275 0.168627
0.266667 0.298039 0.180392
0.337255 0.309804 0.196078
0.435294 0.333333 0.211765
0.552941 0.372549 0.250980
0.666667 0.423529 0.290196
0.760784 0.486275 0.341176
0.337255 0.337255 0.235294
0.274510 0.376471 0.270588
0.305882 0.376471 0.274510
0.356863 0.384314 0.278431
0.423529 0.388235 0.286275
0.521569 0.411765 0.301961
0.627451 0.443137 0.329412
0.729412 0.474510 0.360784
0.705882 0.580392 0.458824
0.376471 0.498039 0.384314
0.388235 0.501961 0.388235
0.423529 0.501961 0.388235
0.474510 0.513725 0.396078
0.541176 0.513725 0.400000
0.623529 0.521569 0.403922
0.713725 0.549020 0.427451
0.815686 0.572549 0.450980
0.772549 0.658824 0.525490
0.588235 0.619608 0.462745
0.494118 0.666667 0.494118
0.525490 0.670588 0.505882
0.564706 0.670588 0.501961
0.627451 0.670588 0.501961
0.694118 0.670588 0.509804
0.772549 0.682353 0.521569
0.850980 0.698039 0.533333
0.843137 0.752941 0.588235
0.329412 0.298039 0.184314
0.231373 0.349020 0.239216
0.262745 0.352941 0.239216
0.317647 0.368627 0.250980
0.388235 0.376471 0.266667
0.478431 0.396078 0.282353
0.584314 0.423529 0.309804
0.694118 0.474510 0.349020
0.713725 0.556863 0.427451
0.372549 0.454902 0.301961
0.321569 0.486275 0.333333
0.356863 0.494118 0.341176
0.396078 0.505882 0.349020
0.454902 0.509804 0.349020
0.537255 0.521569 0.364706
0.623529 0.541176 0.392157
0.729412 0.580392 0.431373
0.803922 0.615686 0.470588
0.078431 0.121569 0.137255
0.098039 0.121569 0.145098
0.129412 0.125490 0.145098
0.184314 0.133333 0.168627
0.266667 0.152941 0.192157
0.380392 0.176471 0.223529
0.505882 0.219608 0.258824
0.635294 0.278431 0.298039
0.650980 0.431373 0.431373
0.203922 0.117647 0.105882
0.109804 0.168627 0.156863
0.145098 0.180392 0.172549
0.196078 0.184314 0.180392
0.274510 0.207843 0.207843
0.380392 0.235294 0.235294
0.501961 0.274510 0.270588
0.627451 0.341176 0.317647
0.690196 0.470588 0.439216
0.266667 0.160784 0.160784
0.160784 0.207843 0.219608
0.203922 0.219608 0.235294
0.254902 0.231373 0.247059
0.345098 0.250980 0.278431
0.450980 0.274510 0.301961
0.576471 0.313725 0.337255
0.713725 0.384314 0.388235
0.737255 0.494118 0.478431
0.270588 0.258824 0.227451
0.219608 0.301961 0.274510
0.247059 0.305882 0.278431
0.309804 0.325490 0.305882
0.384314 0.337255 0.321569
0.486275 0.360784 0.349020
0.600000 0.400000 0.380392
0.721569 0.458824 0.423529
0.803922 0.521569 0.470588
0.341176 0.400000 0.317647
0.282353 0.431373 0.345098
0.313725 0.439216 0.352941
0.372549 0.454902 0.372549
0.439216 0.462745 0.384314
0.521569 0.478431 0.403922
0.623529 0.505882 0.431373
0.721569 0.545098 0.466667
0.705882 0.643137 0.556863
0.415686 0.541176 0.490196
0.427451 0.541176 0.494118
0.454902 0.545098 0.494118
0.501961 0.552941 0.505882
0.572549 0.564706 0.513725
0.650980 0.568627 0.521569
0.741176 0.588235 0.537255
0.835294 0.619608 0.560784
0.792157 0.694118 0.623529
0.619608 0.650980 0.560784
0.525490 0.698039 0.603922
0.560784 0.705882 0.611765
0.596078 0.701961 0.603922
0.650980 0.705882 0.611765
0.721569 0.701961 0.611765
0.796078 0.709804 0.619608
0.866667 0.721569 0.631373
0.854902 0.768627 0.674510
0.301961 0.211765 0.211765
0.211765 0.266667 0.278431
0.239216 0.270588 0.278431
0.298039 0.282353 0.301961
0.384314 0.309804 0.333333
0.486275 0.329412 0.356863
0.611765 0.372549 0.400000
0.741176 0.431373 0.443137
0.764706 0.525490 0.521569
0.337255 0.341176 0.313725
0.278431 0.376471 0.349020
0.309804 0.388235 0.360784
0.360784 0.400000 0.372549
0.431373 0.411765 0.392157
0.533333 0.435294 0.423529
0.635294 0.458824 0.439216
0.752941 0.509804 0.482353
0.835294 0.564706 0.513725
0.109804 0.145098 0.235294
0.141176 0.156863 0.254902
0.164706 0.160784 0.254902
0.211765 0.172549 0.278431
0.286275 0.184314 0.301961
0.407843 0.211765 0.345098
0.529412 0.250980 0.384314
0.666667 0.305882 0.431373
0.666667 0.439216 0.529412
0.247059 0.149020 0.211765
0.152941 0.203922 0.266667
0.184314 0.219608 0.282353
0.231373 0.223529 0.294118
0.298039 0.235294 0.309804
0.407843 0.266667 0.352941
0.529412 0.301961 0.384314
0.658824 0.360784 0.435294
0.690196 0.462745 0.517647
0.290196 0.207843 0.258824
0.200000 0.258824 0.309804
0.227451 0.270588 0.325490
0.278431 0.286275 0.349020
0.352941 0.301961 0.368627
0.450980 0.321569 0.396078
0.576471 0.368627 0.443137
0.694118 0.415686 0.478431
0.729412 0.517647 0.556863
0.286275 0.313725 0.321569
0.227451 0.349020 0.356863
0.262745 0.356863 0.360784
0.313725 0.376471 0.380392
0.388235 0.396078 0.407843
0.494118 0.427451 0.450980
0.600000 0.458824 0.474510
0.713725 0.509804 0.517647
0.807843 0.572549 0.568627
0.392157 0.411765 0.431373
0.341176 0.447059 0.462745
0.368627 0.462745 0.474510
0.415686 0.470588 0.498039
0.494118 0.490196 0.513725
0.584314 0.513725 0.545098
0.682353 0.537255 0.568627
0.784314 0.580392 0.600000
0.764706 0.670588 0.674510
0.450980 0.572549 0.596078
0.474510 0.576471 0.600000
0.498039 0.580392 0.619608
0.541176 0.592157 0.627451
0.607843 0.603922 0.643137
0.686275 0.603922 0.654902
0.776471 0.615686 0.670588
0.862745 0.639216 0.686275
0.831373 0.717647 0.741176
0.662745 0.674510 0.666667
0.580392 0.717647 0.705882
0.600000 0.725490 0.709804
0.639216 0.725490 0.717647
0.678431 0.725490 0.721569
0.749020 0.725490 0.729412
0.827451 0.733333 0.741176
0.894118 0.745098 0.741176
0.886275 0.780392 0.768627
0.247059 0.207843 0.243137
0.156863 0.266667 0.290196
0.192157 0.274510 0.313725
0.239216 0.294118 0.341176
0.309804 0.305882 0.356863
0.403922 0.333333 0.392157
0.525490 0.368627 0.435294
0.647059 0.419608 0.482353
0.682353 0.513725 0.552941
0.258824 0.301961 0.305882
0.211765 0.333333 0.333333
0.235294 0.349020 0.345098
0.290196 0.368627 0.372549
0.356863 0.388235 0.396078
0.443137 0.419608 0.435294
0.552941 0.454902 0.474510
0.662745 0.501961 0.517647
0.760784 0.572549 0.572549
0.125490 0.203922 0.341176
0.152941 0.219608 0.368627
0.176471 0.223529 0.384314
0.223529 0.231373 0.396078
0.298039 0.243137 0.415686
0.400000 0.266667 0.458824
0.529412 0.305882 0.505882
0.666667 0.368627 0.560784
0.662745 0.490196 0.643137
0.258824 0.200000 0.321569
0.176471 0.254902 0.364706
0.211765 0.274510 0.396078
0.254902 0.286275 0.415686
0.325490 0.301961 0.439216
0.419608 0.321569 0.470588
0.541176 0.364706 0.521569
0.662745 0.419608 0.564706
0.698039 0.513725 0.639216
0.313725 0.254902 0.380392
0.223529 0.305882 0.427451
0.254902 0.321569 0.458824
0.313725 0.337255 0.474510
0.376471 0.352941 0.494118
0.478431 0.376471 0.529412
0.596078 0.407843 0.576471
0.709804 0.454902 0.615686
0.745098 0.549020 0.686275
0.325490 0.356863 0.443137
0.278431 0.388235 0.470588
0.309804 0.400000 0.494118
0.360784 0.419608 0.517647
0.427451 0.439216 0.541176
0.517647 0.466667 0.576471
0.627451 0.501961 0.619608
0.737255 0.545098 0.654902
0.815686 0.592157 0.686275
0.384314 0.482353 0.521569
0.345098 0.513725 0.545098
0.372549 0.525490 0.560784
0.423529 0.545098 0.584314
0.478431 0.552941 0.588235
0.568627 0.584314 0.627451
0.662745 0.615686 0.662745
0.756863 0.647059 0.690196
0.745098 0.729412 0.756863
0.474510 0.627451 0.698039
0.482353 0.623529 0.713725
0.509804 0.639216 0.717647
0.549020 0.639216 0.717647
0.607843 0.643137 0.729412
0.686275 0.658824 0.749020
0.776471 0.678431 0.772549
0.854902 0.701961 0.788235
0.827451 0.772549 0.839216
0.674510 0.737255 0.768627
0.592157 0.772549 0.803922
0.607843 0.776471 0.807843
0.635294 0.768627 0.807843
0.682353 0.764706 0.803922
0.741176 0.768627 0.811765
0.823529 0.788235 0.831373
0.890196 0.792157 0.839216
0.878431 0.827451 0.858824
0.254902 0.196078 0.356863
0.164706 0.250980 0.415686
0.203922 0.274510 0.462745
0.258824 0.278431 0.458824
0.329412 0.290196 0.466667
0.431373 0.317647 0.509804
0.556863 0.356863 0.564706
0.682353 0.415686 0.607843
0.713725 0.513725 0.682353
0.258824 0.274510 0.392157
0.211765 0.309804 0.431373
0.239216 0.325490 0.454902
0.290196 0.341176 0.486275
0.360784 0.360784 0.509804
0.450980 0.380392 0.537255
0.564706 0.423529 0.580392
0.678431 0.462745 0.619608
0.776471 0.525490 0.662745
0.145098 0.250980 0.494118
0.176471 0.278431 0.545098
0.215686 0.294118 0.564706
0.274510 0.294118 0.560784
0.345098 0.301961 0.572549
0.450980 0.325490 0.607843
0.584314 0.368627 0.662745
0.717647 0.443137 0.717647
0.705882 0.560784 0.796078
0.290196 0.250980 0.462745
0.203922 0.309804 0.525490
0.250980 0.341176 0.576471
0.305882 0.356863 0.596078
0.376471 0.364706 0.603922
0.474510 0.388235 0.623529
0.596078 0.427451 0.678431
0.713725 0.478431 0.713725
0.741176 0.560784 0.772549
0.325490 0.321569 0.494118
0.247059 0.376471 0.552941
0.282353 0.392157 0.584314
0.337255 0.411765 0.607843
0.411765 0.431373 0.627451
0.498039 0.447059 0.647059
0.611765 0.490196 0.690196
0.721569 0.533333 0.729412
0.741176 0.611765 0.780392
0.345098 0.427451 0.552941
0.301961 0.454902 0.584314
0.329412 0.470588 0.603922
0.372549 0.490196 0.631373
0.447059 0.509804 0.647059
0.537255 0.537255 0.682353
0.639216 0.576471 0.717647
0.741176 0.619608 0.749020
0.815686 0.650980 0.772549
0.443137 0.525490 0.658824
0.396078 0.552941 0.690196
0.419608 0.560784 0.701961
0.466667 0.572549 0.717647
0.517647 0.576471 0.725490
0.603922 0.603922 0.749020
0.705882 0.643137 0.788235
0.800000 0.674510 0.815686
0.776471 0.745098 0.866667
0.501961 0.678431 0.843137
0.498039 0.670588 0.850980
0.533333 0.674510 0.850980
0.572549 0.670588 0.847059
0.635294 0.674510 0.850980
0.701961 0.678431 0.862745
0.792157 0.694118 0.886275
0.882353 0.729412 0.901961
0.850980 0.803922 0.956863
0.705882 0.756863 0.882353
0.619608 0.792157 0.929412
0.631373 0.792157 0.933333
0.662745 0.784314 0.929412
0.698039 0.768627 0.909804
0.764706 0.776471 0.917647
0.843137 0.788235 0.929412
0.917647 0.811765 0.945098
0.909804 0.850980 0.968627
0.215686 0.250980 0.423529
0.172549 0.345098 0.533333
0.184314 0.337255 0.525490
0.239216 0.337255 0.525490
0.309804 0.356863 0.549020
0.403922 0.376471 0.568627
0.529412 0.431373 0.627451
0.662745 0.501961 0.690196
0.701961 0.607843 0.772549
0.219608 0.298039 0.435294
0.180392 0.337255 0.482353
0.235294 0.376471 0.537255
0.282353 0.392157 0.549020
0.337255 0.400000 0.556863
0.427451 0.431373 0.588235
0.549020 0.486275 0.639216
0.658824 0.537255 0.686275
0.745098 0.596078 0.729412
0.164706 0.329412 0.596078
0.215686 0.372549 0.650980
0.274510 0.407843 0.694118
0.317647 0.403922 0.678431
0.388235 0.415686 0.690196
0.490196 0.439216 0.713725
0.607843 0.494118 0.752941
0.741176 0.568627 0.807843
0.717647 0.658824 0.886275
0.301961 0.337255 0.545098
0.235294 0.392157 0.623529
0.294118 0.435294 0.678431
0.341176 0.447059 0.690196
0.419608 0.470588 0.705882
0.498039 0.486275 0.721569
0.611765 0.533333 0.749020
0.721569 0.588235 0.792157
0.741176 0.666667 0.854902
0.352941 0.392157 0.603922
0.274510 0.443137 0.674510
0.313725 0.458824 0.701961
0.384314 0.490196 0.733333
0.454902 0.505882 0.745098
0.541176 0.525490 0.760784
0.639216 0.564706 0.784314
0.756863 0.627451 0.831373
0.764706 0.686275 0.878431
0.376471 0.482353 0.658824
0.337255 0.509804 0.694118
0.368627 0.529412 0.713725
0.411765 0.545098 0.729412
0.474510 0.560784 0.749020
0.572549 0.600000 0.776471
0.658824 0.627451 0.803922
0.772549 0.674510 0.835294
0.839216 0.713725 0.854902
0.454902 0.592157 0.709804
0.407843 0.615686 0.741176
0.431373 0.627451 0.752941
0.466667 0.635294 0.756863
0.513725 0.639216 0.760784
0.592157 0.670588 0.784314
0.690196 0.705882 0.815686
0.780392 0.749020 0.847059
0.768627 0.807843 0.901961
0.513725 0.737255 0.843137
0.521569 0.745098 0.850980
0.537255 0.741176 0.854902
0.568627 0.745098 0.862745
0.607843 0.745098 0.858824
0.666667 0.749020 0.858824
0.733333 0.764706 0.866667
0.831373 0.811765 0.901961
0.811765 0.870588 0.952941
0.686275 0.823529 0.874510
0.623529 0.854902 0.909804
0.639216 0.854902 0.913725
0.643137 0.839216 0.901961
0.670588 0.835294 0.886275
0.721569 0.835294 0.894118
0.784314 0.854902 0.898039
0.854902 0.874510 0.917647
0.874510 0.917647 0.960784
0.000000 0.000000 0.000000
0.000000 0.000000 0.000000
0.000000 0.000000 0.000000
0.000000 0.000000 0.000000
0.000000 0.000000 0.000000
0.000000 0.000000 0.000000
0.000000 0.000000 0.000000
0.000000 0.000000 0.000000
0.000000 0.000000 0.000000
0.000000 0.000000 0.000000
0.000000 0.000000 0.000000
0.000000 0.000000 0.000000
0.000000 0.000000 0.000000
0.000000 0.000000 0.000000
0.000000 0.000000 0.000000
0.000000 0.000000 0.000000
0.000000 0.000000 0.000000
0.000000 0.000000 0.000000
